packages/core/src/svgs/canto.svg

<svg width="24" height="24" viewBox="0 0 24 24" fill="none" xmlns="http://www.w3.org/2000/svg">
<g clip-path="url(#clip0_31_7677)">
<path d="M0 0H24V24H0V0Z" fill="#181B1E"/>
<path d="M8.14286 6H17.5714V18H8.14286V15.8571H6V8.14286H8.14286V6ZM15.4286 8.14286H10.2857V10.2857H8.14286V13.7143H10.2857V15.8571H15.4286V13.7143H10.2857V10.2857H15.4286V8.14286Z" fill="#74F8A2"/>
</g>
<defs>
<clipPath id="clip0_31_7677">
<rect width="24" height="24" fill="white"/>
</clipPath>
</defs>
</svg>

<svg xmlns="http://www.w3.org/2000/svg" width="24" height="24" fill="none" viewBox="0 0 24 24"><g clip-path="url(#a)"><path fill="#181B1E" d="M0 0h24v24H0z"/><path fill="#74F8A2" d="M8.143 6h9.428v12H8.143v-2.143H6V8.143h2.143zm7.286 2.143h-5.143v2.143H8.143v3.428h2.143v2.143h5.143v-2.143h-5.143v-3.428h5.143z"/></g><defs><clipPath id="a"><path fill="#fff" d="M0 0h24v24H0z"/></clipPath></defs></svg>
